X:1
T:Wallingsford
T:A minor              Hezekiah Moors, 1809
T:Transcribed from Province  Harmony, 1809
T:Philip Doddridge, 1743 Principles of the Christian Religion, no. 13        88. 88. (L. M.)
%%score [ 1 2 3 4 ]
L:1/8
Q:1/4=120
M:2/2
K:C
V:1 treble nm="Tr." snm="Tr."
V:2 treble nm="A." snm="A."
V:3 treble-8 nm="T." snm="T."
V:4 bass nm="B." snm="B."
V:1
"_3. Wide  o'er  all  worlds  his power extends, And well can   he      pro – tect  his  friends.                                                               May      I     in    that  blest  band  ap–pear,  Se  –  cure  from  dan–ger,""_2. But,  O    my  soul,  thy  grief  re  –  frain,  Je – sus  the   Sa  –  vior       lives  a –gain.                                                                 On     the third  day  the   conqueror rose,   And  great –  ly  triumphed""_1. Je – sus  the righteous!  Lo,    he      dies,  For  sin   a      spot  – less      sac – ri – fice,                                                                Jus  –  tice  has  on   his     sa – cred head   The   weight  of  our trans–" A4 A2 ^G2 | %1
 A2 B2 c2 BA | ^G4 G4 | A2 GF Ec BA | ^G6 G2 | A6 z2 |: z8 | z4 z2 A2 | e2 e2 ed cB | A2 A2 A2 B2 | %10
 c2 ce d2 c2 | %11
"_1. –gressions laid, The  weight of our trans–gres      –          sions      laid.""_2.  o'er his foes, And  greatly triumphed  o'er ___________    his        foes.""_3.  and from fear!  Se–cure from danger, and ____________  from      fear!" B2 B2 B2 ^G2 | %12
 A3 B A2 A2 | (c>dcB A2) E2 |1 A6 z2 :|2 A8 |] %16
V:2
"_1. Je – sus  the righteous!  Lo,    he      dies,  For  sin   a      spot  – less      sac – ri – fice,""_2. But,  O    my  soul,  thy  grief  re  –  frain,  Je – sus  the   Sa  –  vior       lives  a –gain.""_3. Wide  o'er  all  worlds  his power extends, And well can   he      pro – tect  his  friends." E4 E2 E2 | %1
 E2 E2 E2 F2 | E4 E4 | A2 EA G2 F2 | E6 E2 | E6 z2 |: z8 | z8 | %8
 z4 z2"_Jus  –  tice  has   on     his       sa       –      cred""_On    the  third  day    the      con     –    queror""_May     I      in    that   blest    band           ap–" G2 | %9
 E2 E2 ED CB, | A,4 (B,2 C2) | %11
"_1.  head           The  weight  of  our  trans – gres         –         sions     laid.""_2.  rose,           And  great – ly  triumphed   o'er ___________  his      foes.""_3. –pear!          Se – cure    from  danger,     and ___________  from   fear!" D6 D2 | %12
 E3 E E2 A2 | (G3 F E2) E2 |1 E6 z2 :|2 E8 |] %16
V:3
"_1. Je – sus  the righteous!  Lo,    he      dies,  For  sin   a      spot  – less      sac – ri – fice,""_2. But,  O    my  soul,  thy  grief  re  –  frain,  Je – sus  the   Sa  –  vior       lives  a –gain.""_3. Wide  o'er  all  worlds  his power extends, And well can   he      pro – tect  his  friends." A4 A2 B2 | %1
 c2 B2 A2 GA | B4 B4 | A2 B2 ce dc | B6 B2 | A6 z2 |: %6
 z4 z2"_May   I    in   that  blest  band  ap–pear,  Se  –  cure    from  dan – ger,   and             from""_On  the  third  day   the conqueror rose,  And  great  –  ly   triumphed    o'er              his""_Jus – tice  has  on     his     sacred  head   The  weight    of  our  trans – gres      –     sions" A2 | %7
 e2 e2 ed cB | A2 A2 A2 B2 | c3 B A2 E2 | (3(A2 B2 c2) (B2 A2) | %11
"_1.  laid,           The  weight  of  our  trans – gres         –         sions     laid.""_2.  foes,           And  great – ly  triumphed   o'er ___________  his      foes.""_3.  fear!           Se – cure    from  danger,     and ___________  from   fear!" B6 B2 | %12
 c3 d c2 d2 | (e>fed c2) BA |1 A6 z2 :|2 A8 |] %16
V:4
 A,,4 A,,2 E,2 | A,2 ^G,2 A,2 =G,F, | E,4 E,4 | F,2 E,D, C,2 D,2 | E,6 E,2 | %5
 A,,6"_1.  Jus–tice  has  on     his    sacred  head   The    weight           of        our  trans–gres–sions  laid, _________""_2.  On  the  third day the conqueror rose,  And    great      –      ly         triumphed  o'er  his     foes, _________""_3.  May  I    in   that blest  band  ap–pear,  Se  –  cure               from     dan – ger,  and  from   fear! _________" A,,2 |: %6
 E,2 E,2 E,D, C,B,, | A,,2 A,,2 A,,2 E,2 | A,6 G,2 | C2 C2 C2 B,2 | (A,4 D,4 | G,6) E,2 | %12
 A,3 ^G, A,2 F,2 | (E,>D,C,D, E,2) E,2 |1 A,,6 A,,2 :|2 A,,8 |] %16

